X:1
T:Op.59
T:Lachen und Weinen
T:4. Lachen und Weinen
T:Franz Schubert
T:Op.59, D.777
T:Friedrich Rückert
T:OpenScore (CC0)
T:OpenScore (CC0)
T:OpenScore (CC0)
T:OpenScore (CC0)
C:Franz Schubert
Z:Friedrich Rückert
Z:OpenScore (CC0)
%%score 1 { ( 2 4 ) | ( 3 5 ) }
L:1/8
Q:1/4=80
M:2/4
K:Ab
V:1 treble nm="Voice"
V:2 treble nm="Piano"
V:4 treble 
V:3 bass 
V:5 bass 
V:1
"^Etwas geschwind""^T" z | z4 | z4 | z4 | z4 | z4 | z4 | z4 | z4 |!p! cf e e | ed c c | Bd c B | %12
w: |||||||||La- * chen und|Wei- * nen zu|jeg- * li- cher|
 A2 E z | cf e e | ed c c | Bd c B | A2 E z | z4 | d3 B | cA G A | (B e3-) | e2 z2 | z2 e e | e4 | %24
w: Stun- de|ruht * bei der|Lieb' * auf so|man- * cher- lei|Grun- de.||Mor- gens|lacht' * ich vor|Lust; _|_|und wa-|rum|
 e2 e2 | _f4 | e2 z2 | _c3 c | e2 e e | (A3 B) | _c2 z2 | !fermata!z2!mf! =c c | dB A G | e2 c c | %34
w: ich nun|wei-|ne|bei des|A- ben- des|Schei- *|ne,|ist mir|selb' * nicht be-|wusst, ist mir|
 dB A G | A2 z2 | z4 | z4 | z4 | z4 | z4 | z4 | z4 | z4 | z4 | z4 | z4 | z4 |!p! cf e e | ed c c | %50
w: selb' * nicht be-|wusst.|||||||||||||Wei- * nen und|La- * chen zu|
 Bd c B | A2 E z | cf e e | ed c c | Bd c B | A2 E z | z4 | d3 B | _cA G A | (B e3-) | e2 z2 | %61
w: jeg- * li- cher|Stun- de|ruht * bei der|Lieb' * auf so|man- * cher- lei|Grun- de.||A- bends|weint' * ich vor|Schmerz; _|_|
 z2 e e | e2 c A | A d e f | _g2 c c |{e} d2 d2 | !fermata!z4 | z3/2 B/ B c | dB A G | e>c B c | %70
w: und wa-|rum du er-|wa- chen kannst am|Mor- gen mit|La- chen,||muss ich dich|fra- * gen, o|Herz, muss ich dich|
 dB A G | A2 z2 | z4 | z4 | z4 | z4 | z4 | z4 | z4 | z4 | z4 | z4 | z4 | z4 |] %84
w: fra- * gen, o|Herz.|||||||||||||
V:2
!pp! (A | B>dFG) | (A>!turn!cEA) | (B>dFG) | (A>!turn!cE)!<(!(.[Ee] | .[Fe].[Ge].[Ae].[Be])!<)! | %6
!>(! e3!>)! e |!>(! e3!>)! e | e4 | (cfeB | AdcA) |!>(! (_Fd!>)!EG) | ([CA]EAB) | (cfeB | AdcA) | %15
!>(! (_FB!>)!EG) | ([CA]EAB) | [CEc]2 (.[CEA].[CEA]) | [DEd]2 [DEB][DEB] | cAGA | [B,EGB]3 E | %21
!pp! [_CE_c]2 [CEA][CEA] | [DEd]2 [DEB][DEB] | [DEd]2 [DEB][DEB] | [DEd]2 [DEB][DEB] | %25
 [DEd]2 [DEB][DEB] | [DEd]2 [DEB][DEB] | (([_C_FA]4 | (([_CE_G]4)) |"_dim." (([A,D_F]4)) | %30
 [A,_CE]4)) | !fermata!z2"^a tempo" .[A,=CE].[A,CE] | [G,DE]2 [A,DE][B,DE] | [A,CE]2 [A,CE][A,CE] | %34
 [G,DE]2 [A,DE][B,DE] | [A,CE]2 [CEc][CEc] | (dB).A.G | [EAe]2 [CEc][CEc] | (dB).A.G | %39
 [CEA]2 z!pp! (A | B>dFG) | (A>!turn!cEA) | (B>dFG) | (A>!turn!cE)!<(!(.[Ee] | %44
 .[Fe].[Ge].[Ae].[Be])!<)! |!>(! e3!>)! e |!>(! e3!>)! e | e4 | (cfeB | AdcA) |!>(! (_Fd!>)!EG) | %51
 ([CA]EAB) | (cfeB | AdcA) |!>(! (_FB!>)!EG) | ([CA]EAB) | [_CE_c]2 [CEA][CEA] | %57
 [DEd]2 [DEB][DEB] | _cAGA | [B,EGB]3 E | [=CE=c]2 [CEA][CEA] | [DEd]2 [DEB][DEB] | %62
 [C_GAc]2 [CGA][CGA] | [DFd]2"_cresc." [DFA][DFA] | [C_GAc]2 [CGA][CGA] | [DFd]4 | !fermata!z4 | %67
 z4 | [G,DE]2 [A,DE][B,DE] | [A,CE]2 [A,CE][A,CE] | [G,DE]2 [A,DE][B,DE] | [A,CE]2 [CEc][CEc] | %72
 (dB).A.G | [EAe]2 [CEc][CEc] | (dB).A.G | [CEA]2 z!pp! (A | B>dFG) | (A>!turn!cEA) | (B>dFG) | %79
 (A>!turn!cE)!<(!(.[Ee] | .[Fe].[Ge].[Ae].[Be])!<)! |!>(! e3!>)! e |!>(! e3!>)! e | e4 |] %84
V:3
 (C | D2 B,E) | (C2 A,C) | (D2 B,E) | (C2 A,)[K:treble] (.C | .D.E.F.G) | (A>BA)[K:bass] E, | %7
 (D>EDB,) | C4 | (A2 G2 | F2 E2) | ([D,_F,]2 E,2) | A,,2 z2 | (A2 G2 | F2 E2) | ([D,_F,]2 E,2) | %16
 A,,2 z2 | !>![A,,E,]2 (.[A,,E,].[A,,E,]) | !>![G,,E,]2 [G,,E,][G,,E,] | %19
 !>![A,,E,]2 [A,,E,][A,,E,] | [E,,E,]3 E, | [A,,E,]2 [A,,E,][A,,E,] | [G,,E,]2 [G,,E,][G,,E,] | %23
 !>![E,G,]2 [E,G,][E,G,] |"^dim." !>![E,G,]2 [E,G,][E,G,] | !>![E,G,]2 [E,G,][E,G,] | %26
 !>![E,G,]2 [E,G,][E,G,] | (_F,4 | (_C,4) | (D,4) | A,,4) | !fermata!z2!mf! .[A,,E,].[A,,E,] | %32
 !>![E,,E,]2 E,E, | !>![A,,E,]2 E,E, | !>![E,,E,]2 E,E, | [A,,E,]2 [E,A,][E,A,] | %36
 !>![E,G,]2 [E,A,][E,B,] | !>![E,A,C]2 [E,A,][E,A,] | !>![E,G,]2 [E,A,][E,B,] | [A,,E,A,]2 z (C | %40
 D2 B,E) | (C2 A,C) | (D2 B,E) | (C2 A,)[K:treble] (.C | .D.E.F.G) | (A>BA)[K:bass] E, | (D>EDB,) | %47
 C4 | (A2 G2 | F2 E2) | ([D,_F,]2 E,2) | A,,2 z2 | (A2 G2 | F2 E2) | ([D,_F,]2 E,2) | A,,2 z2 | %56
 !>![A,,E,]2 [A,,E,][A,,E,] | [G,,E,]2 [G,,E,][G,,E,] | [A,,E,]2 [A,,E,][A,,E,] | [E,,E,]3 E, | %60
 [A,,E,]2 [A,,E,][A,,E,] | [G,,E,]2 [G,,E,][G,,E,] | [A,,E,]2 [A,,A,][A,,A,] | %63
 [A,,F,]2 [A,,A,][A,,A,] | [A,,E,]2 [A,,A,][A,,A,] | [D,A,]4 | !fermata!z4 | z4 | %68
 !>![E,,E,]2 E,E, | !>![A,,E,]2 E,E, | !>![E,,E,]2 E,E, | [A,,E,]2 [E,A,][E,A,] | %72
 !>![E,G,]2 [E,A,][E,B,] | !>![E,A,C]2 [E,A,][E,A,] | !>![E,G,]2 [E,A,][E,B,] | [A,,E,A,]2 z (C | %76
 D2 B,E) | (C2 A,C) | (D2 B,E) | (C2 A,)[K:treble] (.C | .D.E.F.G) | (A>BA)[K:bass] E, | (D>EDB,) | %83
 C4 |] %84
V:4
 x | x4 | x4 | x4 | x4 | x4 | (c>dc) A | (B>cBG) | A4 | x4 | x4 | D2 D2 | x4 | x4 | x4 | D2 D2 | %16
 x4 | x4 | x4 | [CE]2 [CE][CE] | x4 | x4 | x4 | x4 | x4 | x4 | x4 | x4 | x4 | x4 | x4 | x4 | x4 | %33
 x4 | x4 | x4 | [DE]2 [DE][DE] | x4 | [DE]2 [DE][DE] | x4 | x4 | x4 | x4 | x4 | x4 | (c>dc) A | %46
 (B>cBG) | A4 | x4 | x4 | D2 D2 | x4 | x4 | x4 | D2 D2 | x4 | x4 | x4 | [_CE]2 [CE][CE] | x4 | x4 | %61
 x4 | x4 | x4 | x4 | x4 | x4 | x4 | x4 | x4 | x4 | x4 | [DE]2 [DE][DE] | x4 | [DE]2 [DE][DE] | x4 | %76
 x4 | x4 | x4 | x4 | x4 | (c>dc) A | (B>cBG) | A4 |] %84
V:5
 x | x4 | x4 | x4 | x3[K:treble] x | x4 | x3[K:bass] C | E,3 E, | A,4 | x4 | x4 | x4 | x4 | x4 | %14
 x4 | x4 | x4 | x4 | x4 | x4 | x4 | x4 | x4 | x4 | x4 | x4 | x4 | x4 | x4 | x4 | x4 | x4 | x4 | %33
 x4 | x4 | x4 | x4 | x4 | x4 | x4 | x4 | x4 | x4 | x3[K:treble] x | x4 | x3[K:bass] C | E,3 E, | %47
 A,4 | x4 | x4 | x4 | x4 | x4 | x4 | x4 | x4 | x4 | x4 | x4 | x4 | x4 | x4 | x4 | x4 | x4 | x4 | %66
 x4 | x4 | x4 | x4 | x4 | x4 | x4 | x4 | x4 | x4 | x4 | x4 | x4 | x3[K:treble] x | x4 | %81
 x3[K:bass] C | E,3 E, | A,4 |] %84

